X:1
T:Non pa Andri EHo.060
T:Non pa Andri EHo.060
T:Mozart
C:Mozart
L:1/8
Q:1/4=120
M:2/2
K:D
V:1 treble 
V:1
 a>a | f2 a>a f2 a>a | (a/g/f/g/) e>e e2 g>g | e2 g>g e2 g>g | (g/f/e/f/) d>d d2 D>F | %5
 A2 F>A d2 A>d | f d2 z z2 a>d' | a2 f>a g2 e>g | f2 f>f f2 D>F | A2 F>A d2 A>d | f d2 z z2 a>d' | %11
 a2 f>a g2 e2 | d2 f>f f2 g2 | a2 a>a ag/a/ b/a/g/f/ | e2 e>e e2 f2 | g2 g>g gf/g/ a/g/f/e/ | %16
 f2 a>a a2 gf | b2 d'>d' d'2 c'b | a2 a>a a2 (gf) | ee/e/ ff/f/ gg/g/ ee/e/ | d2 d'>d' d'2 f2 | %21
 ee/e/ ff/f/ gg/g/ ee/e/ | d2 d'>d' d'2 d'2 | [fd']4 z2 |] %24

